plugins/nintendo-ds/src/icons/view-top-screen-symbolic.svg

<?xml version="1.0" encoding="UTF-8" standalone="no"?>
<svg
   xmlns:dc="http://purl.org/dc/elements/1.1/"
   xmlns:cc="http://creativecommons.org/ns#"
   xmlns:rdf="http://www.w3.org/1999/02/22-rdf-syntax-ns#"
   xmlns:svg="http://www.w3.org/2000/svg"
   xmlns="http://www.w3.org/2000/svg"
   xmlns:sodipodi="http://sodipodi.sourceforge.net/DTD/sodipodi-0.dtd"
   xmlns:inkscape="http://www.inkscape.org/namespaces/inkscape"
   width="16"
   height="16"
   version="1.1"
   id="svg8"
   sodipodi:docname="6-top.svg"
   inkscape:version="0.92.4 5da689c313, 2019-01-14">
  <metadata
     id="metadata14">
    <rdf:RDF>
      <cc:Work
         rdf:about="">
        <dc:format>image/svg+xml</dc:format>
        <dc:type
           rdf:resource="http://purl.org/dc/dcmitype/StillImage" />
        <dc:title></dc:title>
      </cc:Work>
    </rdf:RDF>
  </metadata>
  <defs
     id="defs12" />
  <sodipodi:namedview
     pagecolor="#ffffff"
     bordercolor="#666666"
     borderopacity="1"
     objecttolerance="10"
     gridtolerance="10"
     guidetolerance="10"
     inkscape:pageopacity="0"
     inkscape:pageshadow="2"
     inkscape:window-width="1920"
     inkscape:window-height="1016"
     id="namedview10"
     showgrid="true"
     inkscape:zoom="32"
     inkscape:cx="1.5549575"
     inkscape:cy="8.7612104"
     inkscape:window-x="0"
     inkscape:window-y="27"
     inkscape:window-maximized="1"
     inkscape:current-layer="svg8">
    <inkscape:grid
       type="xygrid"
       id="grid4526" />
  </sodipodi:namedview>
  <path
     sodipodi:nodetypes="sccssccssscscccscscccs"
     inkscape:connector-curvature="0"
     id="path858"
     d="M 7,15 C 6.057191,15 5.000021,13.942809 5,13 V 7 C 4.999979,6.057191 6.057191,4.9999999 7,4.9999999 h 6 c 0.942809,0 1.999979,1.0571911 2,2.0000001 v 6 c 2.1e-5,0.942809 -1.057191,2 -2,2 z m 5,-3 h 1 v -1 c 0,-0.31 -0.09025,-0.552 -0.28125,-0.75 L 10,7.5917969 7.28125,10.248047 c -0.19,0.198 -0.28125,0.44 -0.28125,0.75 v 1 h 1 c 0.257,0 0.52775,-0.1295 0.71875,-0.3125 L 10,10.40625 11.28125,11.685547 C 11.47125,11.868547 11.743,12 12,12 Z"
     style="fill:#474747;fill-opacity:1;stroke:none;stroke-width:1px;stroke-linecap:butt;stroke-linejoin:miter;stroke-opacity:1" />
  <path
     inkscape:connector-curvature="0"
     id="path818"
     d="m 9,1 c 0.942809,0 1.999979,1.057191 2,2 V 4 H 9 V 3 H 3 v 6 h 1 v 2 H 3 C 2.057191,11 1.000021,9.942809 1,9 V 3 C 0.999979,2.057191 2.057191,1 3,1 Z"
     style="opacity:0.5;fill:#474747;fill-opacity:1;stroke:none;stroke-width:1px;stroke-linecap:butt;stroke-linejoin:miter;stroke-opacity:1"
     sodipodi:nodetypes="sccccccccsccss" />
</svg>

<svg width="16" height="16" version="1.1" xmlns="http://www.w3.org/2000/svg">
  <path d="m7 15c-0.94281 0-2-1.0572-2-2v-6c-2.1e-5 -0.94281 1.0572-2 2-2h6c0.94281 0 2 1.0572 2 2v6c2.1e-5 0.94281-1.0572 2-2 2zm5-3h1v-1c0-0.31-0.09025-0.552-0.28125-0.75l-2.7188-2.6582-2.7188 2.6563c-0.19 0.198-0.28125 0.44-0.28125 0.75v1h1c0.257 0 0.52775-0.1295 0.71875-0.3125l1.2812-1.2793 1.2812 1.2793c0.19 0.183 0.46175 0.31445 0.71875 0.31445z" fill="#474747"/>
  <path d="m9 1c0.94281 0 2 1.0572 2 2v1h-2v-1h-6v6h1v2h-1c-0.94281 0-2-1.0572-2-2v-6c-2.1e-5 -0.94281 1.0572-2 2-2z" fill="#474747" opacity=".5"/>
</svg>
